icons/svg/16x16/trash/filled.svg

<svg xmlns="http://www.w3.org/2000/svg" width="16" height="16" viewBox="0 0 16 16">
  <path fill-rule="evenodd" d="M13,2 L11,2 C11,1.447 10.552,1 10,1 L6,1 C5.448,1 5,1.447 5,2 L3,2 C2.448,2 2,2.447 2,3 C2,3.553 2.448,4 3,4 L13,4 C13.552,4 14,3.553 14,3 C14,2.447 13.552,2 13,2 L13,2 Z M3,5 L13,5 L13,12.5 C13,13.881 11.881,15 10.5,15 L5.5,15 C4.119,15 3,13.881 3,12.5 L3,5 Z"/>
</svg>

<svg width="16" height="16" fill="none" xmlns="http://www.w3.org/2000/svg">
  <path fill-rule="evenodd" clip-rule="evenodd" d="M13 2h-2a1 1 0 00-1-1H6a1 1 0 00-1 1H3a1 1 0 100 2h10a1 1 0 100-2zM3 5h10v7.5a2.5 2.5 0 01-2.5 2.5h-5A2.5 2.5 0 013 12.5V5z" fill="#000"/>
</svg>
